icons/animal_bat_fill.svg

<svg width="48" height="48" viewBox="0 0 48 48" fill="none" xmlns="http://www.w3.org/2000/svg">
<path fill-rule="evenodd" clip-rule="evenodd" d="M19.8896 12.0061C20.4385 11.9451 20.9329 12.3407 20.9939 12.8896L21.9939 21.8896C22.0549 22.4385 21.6593 22.9329 21.1104 22.9939C20.5615 23.0549 20.0671 22.6593 20.0061 22.1104L19.0061 13.1104C18.9451 12.5615 19.3407 12.0671 19.8896 12.0061Z" fill="black"/>
<path fill-rule="evenodd" clip-rule="evenodd" d="M13.3878 11C13.5411 17.1072 15.5999 18.23 20.3265 19L20.027 16.0646L19.6143 15.0774C21.2267 14.4032 22.5854 14.0076 23.9941 14.0001C25.4075 13.9926 26.7714 14.3762 28.3984 15.0828L27.9733 16.0614L27.6735 19C32.4001 18.23 34.4589 17.1072 34.6122 11C41.1429 11 44 17.5 44 27C36.6672 25.1247 32.5 29.5 32.5 33.4H27L24 39L21 33.4H15.5C15.5 29.5 11.3328 25.1247 4 27C4 17.5 6.85714 11 13.3878 11Z" fill="black"/>
<path fill-rule="evenodd" clip-rule="evenodd" d="M28.1104 12.0061C27.5615 11.9451 27.0671 12.3407 27.0061 12.8896L26.0061 21.8896C25.9451 22.4385 26.3407 22.9329 26.8896 22.9939C27.4385 23.0549 27.9329 22.6593 27.9939 22.1104L28.9939 13.1104C29.0549 12.5615 28.6593 12.0671 28.1104 12.0061Z" fill="black"/>
</svg>

<svg
  xmlns="http://www.w3.org/2000/svg"
  width="24"
  height="24"
  viewBox="0 0 24 24"
  fill="none"
  stroke="currentColor"
  stroke-width="2"
  stroke-linecap="round"
  stroke-linejoin="round"
>
  <path
    fill-rule="evenodd"
    d="M19.89 12.006a1 1 0 0 1 1.104.884l1 9a1 1 0 0 1-1.988.22l-1-9a1 1 0 0 1 .884-1.104"
    clip-rule="evenodd"
  />
  <path
    fill-rule="evenodd"
    d="M13.388 11c.153 6.107 2.212 7.23 6.938 8l-.299-2.935-.413-.988c1.613-.674 2.971-1.07 4.38-1.077 1.413-.007 2.777.376 4.404 1.083l-.425.978-.3 2.939c4.727-.77 6.786-1.893 6.94-8C41.142 11 44 17.5 44 27c-7.333-1.875-11.5 2.5-11.5 6.4H27L24 39l-3-5.6h-5.5c0-3.9-4.167-8.275-11.5-6.4 0-9.5 2.857-16 9.388-16"
    clip-rule="evenodd"
  />
  <path
    fill-rule="evenodd"
    d="M28.11 12.006a1 1 0 0 0-1.104.884l-1 9a1 1 0 0 0 1.988.22l1-9a1 1 0 0 0-.884-1.104"
    clip-rule="evenodd"
  />
</svg>
